assets/svg/notes-o.svg

<?xml version="1.0" encoding="UTF-8"?>
<svg width="1000px" height="1000px" viewBox="0 0 1000 1000" version="1.1" xmlns="http://www.w3.org/2000/svg" xmlns:xlink="http://www.w3.org/1999/xlink">
    <!-- Generator: sketchtool 52.4 (67378) - http://www.bohemiancoding.com/sketch -->
    <title>notes-o</title>
    <desc>Created with sketchtool.</desc>
    <g id="新版图标" stroke="none" stroke-width="1" fill="none" fill-rule="evenodd">
        <g id="notes-o" fill="#323233">
            <g id="直角-备注-线">
                <path d="M833.333333,833.333333 L166.666667,833.333333 L166.666667,222.222222 L277.777778,222.222222 L277.777778,277.777778 L333.333333,277.777778 L333.333333,222.222222 L666.666667,222.222222 L666.666667,277.777778 L722.222222,277.777778 L722.222222,222.222222 L833.333333,222.222222 L833.333333,833.333333 Z M833.333333,166.666667 L722.222222,166.666667 L722.222222,111.111111 L666.666667,111.111111 L666.666667,166.666667 L333.333333,166.666667 L333.333333,111.111111 L277.777778,111.111111 L277.777778,166.666667 L166.666667,166.666667 C135.944444,166.666667 111.111111,191.5 111.111111,222.222222 L111.111111,833.333333 C111.111111,864.055556 135.944444,888.888889 166.666667,888.888889 L833.333333,888.888889 C864.055556,888.888889 888.888889,864.055556 888.888889,833.333333 L888.888889,222.222222 C888.888889,191.5 864.055556,166.666667 833.333333,166.666667 Z M277.777778,611.111111 L722.222222,611.111111 L722.222222,555.555556 L277.777778,555.555556 L277.777778,611.111111 Z M277.777778,500 L722.222222,500 L722.222222,444.444444 L277.777778,444.444444 L277.777778,500 Z M277.777778,722.222222 L500,722.222222 L500,666.666667 L277.777778,666.666667 L277.777778,722.222222 Z" id="Fill-1"></path>
            </g>
        </g>
    </g>
</svg>

<svg width="1000" height="1000" xmlns="http://www.w3.org/2000/svg"><path d="M833.333 833.333H166.667v-611.11h111.11v55.555h55.556v-55.556h333.334v55.556h55.555v-55.556h111.111v611.111zm0-666.666h-111.11V111.11h-55.556v55.556H333.333V111.11h-55.555v55.556H166.667c-30.723 0-55.556 24.833-55.556 55.555v611.111c0 30.723 24.833 55.556 55.556 55.556h666.666c30.723 0 55.556-24.833 55.556-55.556v-611.11c0-30.723-24.833-55.556-55.556-55.556zM277.778 611.11h444.444v-55.555H277.778v55.555zm0-111.111h444.444v-55.556H277.778V500zm0 222.222H500v-55.555H277.778v55.555z" fill="#323233" fill-rule="evenodd"/></svg>
